X: 27349
T: Mister O'Rourke's
R: reel
M: 4/4
K: Gdorian
|:DGGF GABc|d2e/d/c dcBd|~c3d cAGE|~F3G FDB,A,|
G,A,B,D GABc|d2e/d/c dcBd|~c3d cAGF|1 DGA/G/F G3F:|2 DGA/G/F G3a||
|:bagf dcBA|DGA/G/F GAGD|CFG/F/E FEFG|Acd/c/B c3a|
bagf dcBA|DGA/G/F GAGD|CFG/F/E FABc|1 d/c/B c/B/A G3a:|2 d/c/B c/B/A G3F||

